archdroid-icon-theme/Archdroid-BrownDark/places/scalable/folder-system.svg

<?xml version="1.0" encoding="UTF-8" standalone="no"?>
<svg
   xmlns:dc="http://purl.org/dc/elements/1.1/"
   xmlns:cc="http://creativecommons.org/ns#"
   xmlns:rdf="http://www.w3.org/1999/02/22-rdf-syntax-ns#"
   xmlns:svg="http://www.w3.org/2000/svg"
   xmlns="http://www.w3.org/2000/svg"
   xmlns:sodipodi="http://sodipodi.sourceforge.net/DTD/sodipodi-0.dtd"
   xmlns:inkscape="http://www.inkscape.org/namespaces/inkscape"
   fill="#3E2723"
   width="48"
   height="48"
   viewBox="0 0 48 48"
   id="svg2"
   version="1.1"
   inkscape:version="0.91 r13725"
   sodipodi:docname="folder-system.svg">
  <metadata
     id="metadata10">
    <rdf:RDF>
      <cc:Work
         rdf:about="">
        <dc:format>image/svg+xml</dc:format>
        <dc:type
           rdf:resource="http://purl.org/dc/dcmitype/StillImage" />
        <dc:title />
      </cc:Work>
    </rdf:RDF>
  </metadata>
  <defs
     id="defs8" />
  <sodipodi:namedview
     pagecolor="#ffffff"
     bordercolor="#666666"
     borderopacity="1"
     objecttolerance="10"
     gridtolerance="10"
     guidetolerance="10"
     inkscape:pageopacity="0"
     inkscape:pageshadow="2"
     inkscape:window-width="1366"
     inkscape:window-height="713"
     id="namedview6"
     showgrid="false"
     inkscape:zoom="5.6568543"
     inkscape:cx="-23.874725"
     inkscape:cy="19.447356"
     inkscape:window-x="0"
     inkscape:window-y="30"
     inkscape:window-maximized="1"
     inkscape:current-layer="svg2"
     inkscape:snap-bbox="true"
     inkscape:bbox-paths="true"
     inkscape:snap-bbox-edge-midpoints="true" />
  <path
     d="M 8 8 C 5.79 8 4.0195312 9.79 4.0195312 12 L 4 36 C 4 38.21 5.79 40 8 40 L 40 40 C 42.21 40 44 38.21 44 36 L 44 16 C 44 13.79 42.21 12 40 12 L 24 12 L 20 8 L 8 8 z M 27.132812 17 L 31.132812 17 C 31.382812 17 31.587812 17.184922 31.632812 17.419922 L 32.007812 20.070312 C 32.617812 20.325312 33.182266 20.659688 33.697266 21.054688 L 36.1875 20.050781 C 36.4125 19.960781 36.671875 20.050625 36.796875 20.265625 L 38.796875 23.730469 C 38.921875 23.950469 38.867734 24.219141 38.677734 24.369141 L 36.5625 26.025391 C 36.6025 26.345391 36.632812 26.67 36.632812 27 C 36.632812 27.33 36.6025 27.654609 36.5625 27.974609 L 38.671875 29.630859 C 38.861875 29.785859 38.917969 30.054531 38.792969 30.269531 L 36.792969 33.734375 C 36.667969 33.949375 36.408594 34.034219 36.183594 33.949219 L 33.693359 32.945312 C 33.178359 33.345312 32.611953 33.674687 32.001953 33.929688 L 31.626953 36.580078 C 31.586953 36.815078 31.382812 37 31.132812 37 L 27.132812 37 C 26.882813 37 26.676719 36.815078 26.636719 36.580078 L 26.261719 33.929688 C 25.651719 33.674688 25.087266 33.340313 24.572266 32.945312 L 22.082031 33.949219 C 21.857031 34.039219 21.597656 33.949375 21.472656 33.734375 L 19.472656 30.269531 C 19.347656 30.049531 19.401797 29.780859 19.591797 29.630859 L 21.703125 27.974609 C 21.663125 27.654609 21.632812 27.33 21.632812 27 C 21.632813 26.67 21.663125 26.345391 21.703125 26.025391 L 19.591797 24.369141 C 19.401797 24.214141 19.347656 23.945469 19.472656 23.730469 L 21.472656 20.265625 C 21.597656 20.050625 21.857031 19.965781 22.082031 20.050781 L 24.572266 21.054688 C 25.087266 20.654688 25.651719 20.325312 26.261719 20.070312 L 26.636719 17.419922 C 26.676719 17.184922 26.882812 17 27.132812 17 z M 29.132812 23.5 C 27.197813 23.5 25.632812 25.065 25.632812 27 C 25.632813 28.935 27.197813 30.5 29.132812 30.5 C 31.067812 30.5 32.632812 28.935 32.632812 27 C 32.632812 25.065 31.067812 23.5 29.132812 23.5 z "
     id="path3382" />
  <path
     d="m 79.186441,15.966102 -6,0 0,11 c 0,2.76 -2.24,5 -5,5 -2.76,0 -5,-2.24 -5,-5 0,-2.76 2.24,-5 5,-5 1.13,0 2.16,0.39 3,1.02 l 0,-11.02 8,0 0,4 z"
     id="path3340"
     inkscape:connector-curvature="0"
     style="fill:#ffffff;fill-opacity:1" />
</svg>

<svg xmlns="http://www.w3.org/2000/svg" fill="#3E2723" viewBox="0 0 48 48"><path d="m8 8c-2.21 0-3.98 1.79-3.98 4l-.02 24c0 2.21 1.79 4 4 4h32c2.21 0 4-1.79 4-4v-20c0-2.21-1.79-4-4-4h-16l-4-4h-12m19.13 9h4c.25 0 .455.185.5.42l.375 2.65c.61.255 1.174.589 1.689.984l2.49-1c.225-.09.484 0 .609.215l2 3.465c.125.22.071.489-.119.639l-2.115 1.656c.04.32.07.645.07.975 0 .33-.03.655-.07.975l2.109 1.656c.19.155.246.424.121.639l-2 3.465c-.125.215-.384.3-.609.215l-2.49-1c-.515.4-1.081.729-1.691.984l-.375 2.65c-.04.235-.244.42-.494.42h-4c-.25 0-.456-.185-.496-.42l-.375-2.65c-.61-.255-1.174-.589-1.689-.984l-2.49 1c-.225.09-.484 0-.609-.215l-2-3.465c-.125-.22-.071-.489.119-.639l2.111-1.656c-.04-.32-.07-.645-.07-.975 0-.33.03-.655.07-.975l-2.111-1.656c-.19-.155-.244-.424-.119-.639l2-3.465c.125-.215.384-.3.609-.215l2.49 1c.515-.4 1.079-.729 1.689-.984l.375-2.65c.04-.235.246-.42.496-.42m2 6.5c-1.935 0-3.5 1.565-3.5 3.5 0 1.935 1.565 3.5 3.5 3.5 1.935 0 3.5-1.565 3.5-3.5 0-1.935-1.565-3.5-3.5-3.5"/></svg>
